X: 1
T: Andr\'e \`a Toto
C: trad Qu\'ebec
R: jig
Z: 2007 John Chambers <jc:trillian.mit.edu> from Pascal Gemme's blog
M: 6/8
L: 1/8
K: D
   g \
| fef d2B | AFA DFA | fed gfg | ecd e2a \
| fef d2B | AFA DFA | Bcd eag | fdc d2 :|
|: e \
| fga fga | fga afd | efg efg | efg fef \
| d2e fga | fga fga | afd efg | aba a2 :|
